svgs/sharp-thin/object-intersect.svg

<svg xmlns="http://www.w3.org/2000/svg" viewBox="0 0 512 512"><!--! Font Awesome Pro 6.6.0 by @fontawesome - https://fontawesome.com License - https://fontawesome.com/license (Commercial License) Copyright 2024 Fonticons, Inc. --><path d="M96 16L16 16l0 80L0 96 0 16 0 0 16 0 96 0l0 16zm32 0l0-16 96 0 0 16-96 0zM0 128l16 0 0 96L0 224l0-96zM336 16l-80 0 0-16 80 0 16 0 0 16 0 112-16 0 0-112zm0 144l16 0 0 16 0 80 0 80 0 16-16 0-112 0-48 0-16 0 0-16 0-80 0-80 0-16 16 0 112 0 48 0zM160 384l16 0 0 112 80 0 0 16-80 0-16 0 0-16 0-112zm-32-32L16 352 0 352l0-16 0-80 16 0 0 80 112 0 0 16zM384 176l0-16 112 0 16 0 0 16 0 80-16 0 0-80-112 0zm32 336l0-16 80 0 0-80 16 0 0 80 0 16-16 0-80 0zm80-224l16 0 0 96-16 0 0-96zM288 512l0-16 96 0 0 16-96 0zM176 176l0 160 160 0 0-160-160 0z"/></svg>

<svg xmlns="http://www.w3.org/2000/svg" viewBox="0 0 512 512"><!--! Font Awesome Pro 6.5.2 by @fontawesome - https://fontawesome.com License - https://fontawesome.com/license (Commercial License) Copyright 2024 Fonticons, Inc. --><path d="M96 16H16V96H0V16 0H16 96V16zm32 0V0h96V16H128zM0 128H16v96H0V128zM336 16H256V0h80 16V16 128H336V16zm0 144h16v16 80 80 16H336 224 176 160V336 256 176 160h16H288h48zM160 384h16V496h80v16H176 160V496 384zm-32-32H16 0V336 256H16v80H128v16zM384 176V160H496h16v16 80H496V176H384zm32 336V496h80V416h16v80 16H496 416zm80-224h16v96H496V288zM288 512V496h96v16H288zM176 176V336H336V176H176z"/></svg>
